images/client 3.svg

<svg width="44" height="41" viewBox="0 0 44 41" fill="none" xmlns="http://www.w3.org/2000/svg">
<path d="M6.80982 40.2233C6.82594 40.2236 6.8418 40.2268 6.85649 40.2324C6.87118 40.2381 6.88441 40.2462 6.89539 40.2563L7.11622 40.4639C6.94481 40.6319 6.73295 40.7662 6.49514 40.8578C6.21665 40.9577 5.91652 41.0059 5.61459 40.9993C5.33087 41.0043 5.04899 40.9593 4.78649 40.8672C4.5497 40.7826 4.33695 40.6555 4.16265 40.4945C3.98476 40.3275 3.84773 40.1319 3.75964 39.919C3.66316 39.6817 3.61553 39.4319 3.61886 39.1807C3.61494 38.9279 3.66644 38.6766 3.77068 38.44C3.86711 38.2258 4.01256 38.0301 4.19853 37.8645C4.38702 37.702 4.6125 37.5744 4.86102 37.4894C5.13289 37.3994 5.4224 37.3545 5.71396 37.3573C5.9848 37.3517 6.2542 37.3926 6.50618 37.4776C6.72481 37.5587 6.92554 37.6712 7.09966 37.8102L6.91471 38.0319C6.90194 38.0475 6.88606 38.0611 6.86779 38.072C6.84597 38.0848 6.8196 38.0907 6.79326 38.0886C6.76461 38.0869 6.73699 38.0787 6.71321 38.065L6.61384 38.006L6.47582 37.9305C6.41624 37.9025 6.35444 37.8781 6.29088 37.8574C6.209 37.8324 6.12503 37.8126 6.03968 37.7984C5.93136 37.7814 5.82134 37.7735 5.7112 37.7748C5.50125 37.7726 5.29289 37.8063 5.09841 37.8739C4.91703 37.9365 4.75331 38.0314 4.61811 38.1522C4.48046 38.2807 4.3744 38.4315 4.30619 38.5957C4.22844 38.7835 4.19013 38.9815 4.19301 39.1807C4.1897 39.3829 4.228 39.5841 4.30619 39.7751C4.37354 39.9378 4.47765 40.0877 4.61258 40.2162C4.73901 40.336 4.89572 40.4295 5.0708 40.4898C5.25098 40.5536 5.44439 40.5857 5.63943 40.5842C5.7521 40.5856 5.86472 40.5793 5.9762 40.5653C6.15822 40.5463 6.33282 40.4923 6.48686 40.4072C6.56412 40.3637 6.63706 40.3148 6.70493 40.261C6.7333 40.2379 6.77063 40.2244 6.80982 40.2233V40.2233Z" fill="#8E8F99"/>
<path d="M13.1861 39.1803C13.1896 39.4305 13.139 39.6792 13.0371 39.9138C12.9471 40.1266 12.8054 40.3207 12.6213 40.4834C12.4371 40.646 12.2148 40.7734 11.9688 40.8573C11.4284 41.0334 10.831 41.0334 10.2906 40.8573C10.0462 40.7721 9.82526 40.6444 9.64188 40.4822C9.45787 40.3167 9.31513 40.1209 9.22231 39.9067C9.02347 39.4317 9.02347 38.9124 9.22231 38.4373C9.31648 38.2231 9.45904 38.0267 9.64188 37.8595C9.82682 37.7024 10.0476 37.5796 10.2906 37.4986C10.8303 37.3193 11.4291 37.3193 11.9688 37.4986C12.214 37.5837 12.4359 37.7114 12.6203 37.8736C12.802 38.0376 12.9437 38.2308 13.0371 38.442C13.1393 38.6782 13.1899 38.9285 13.1861 39.1803ZM12.6065 39.1803C12.6108 38.9801 12.5753 38.7807 12.5016 38.5906C12.4397 38.4278 12.3392 38.2777 12.2062 38.1496C12.0768 38.0284 11.9174 37.9333 11.7397 37.8713C11.347 37.7423 10.9123 37.7423 10.5197 37.8713C10.3419 37.9333 10.1826 38.0284 10.0532 38.1496C9.91837 38.2769 9.81675 38.4272 9.75506 38.5906C9.61461 38.9746 9.61461 39.386 9.75506 39.7699C9.81736 39.9331 9.9189 40.0833 10.0532 40.211C10.1828 40.3315 10.3421 40.4257 10.5197 40.487C10.913 40.6126 11.3463 40.6126 11.7397 40.487C11.9173 40.4257 12.0766 40.3315 12.2062 40.211C12.3386 40.0826 12.4391 39.9325 12.5016 39.7699C12.5757 39.5799 12.6111 39.3805 12.6065 39.1803V39.1803Z" fill="#8E8F99"/>
<path d="M17.5365 39.7987L17.5944 39.9308C17.6165 39.8836 17.6358 39.8412 17.6579 39.7987C17.679 39.7544 17.7029 39.7111 17.7297 39.669L19.1402 37.4781C19.1678 37.4404 19.1927 37.4168 19.2203 37.4097C19.2578 37.4 19.297 37.396 19.3362 37.3979H19.753V40.9614H19.2589V38.3413C19.2589 38.3083 19.2589 38.2705 19.2589 38.2304C19.2562 38.1896 19.2562 38.1486 19.2589 38.1078L17.8401 40.3293C17.8221 40.3626 17.7933 40.3908 17.757 40.4104C17.7208 40.4301 17.6787 40.4404 17.6358 40.4402H17.5558C17.5128 40.4407 17.4706 40.4305 17.4343 40.4108C17.398 40.3911 17.3692 40.3628 17.3515 40.3293L15.8913 38.0937C15.8913 38.1361 15.8913 38.1786 15.8913 38.221C15.8913 38.2635 15.8913 38.3012 15.8913 38.3342V40.9543H15.4138V37.3979H15.8306C15.8697 37.396 15.909 37.4 15.9465 37.4097C15.9807 37.4242 16.008 37.4484 16.0238 37.4781L17.4647 39.6714C17.493 39.7119 17.517 39.7545 17.5365 39.7987V39.7987Z" fill="#8E8F99"/>
<path d="M22.8447 39.6217V40.9564H22.2926V37.3978H23.5237C23.7561 37.394 23.9878 37.4202 24.211 37.4756C24.3897 37.5189 24.5554 37.5945 24.6969 37.6973C24.8195 37.7937 24.914 37.9132 24.9729 38.0463C25.0381 38.1915 25.0699 38.346 25.0667 38.5015C25.0692 38.6576 25.0344 38.8124 24.9646 38.9566C24.8983 39.0932 24.7963 39.215 24.6665 39.3127C24.5249 39.4198 24.3584 39.5002 24.1779 39.5486C23.963 39.6072 23.7382 39.6351 23.5127 39.6311L22.8447 39.6217ZM22.8447 39.2396H23.5127C23.6578 39.2412 23.8022 39.2229 23.9405 39.1854C24.0546 39.1526 24.1598 39.1004 24.2497 39.0321C24.3326 38.9668 24.3968 38.8862 24.4374 38.7963C24.4826 38.7012 24.5051 38.5994 24.5036 38.4968C24.5101 38.3978 24.4912 38.2989 24.4483 38.2069C24.4054 38.1148 24.3395 38.0319 24.2552 37.9638C24.0443 37.8231 23.7794 37.755 23.5127 37.7728H22.8447V39.2396Z" fill="#8E8F99"/>
<path d="M30.2645 40.9613H29.8283C29.7846 40.9627 29.7416 40.951 29.7069 40.9282C29.6756 40.906 29.651 40.8777 29.6351 40.8457L29.2597 39.9848H27.3744L26.9852 40.8457C26.9709 40.8772 26.9471 40.9048 26.9162 40.9259C26.8811 40.95 26.837 40.9626 26.792 40.9613H26.3558L28.012 37.3975H28.5862L30.2645 40.9613ZM27.5317 39.6381H29.0886L28.4316 38.1876C28.3814 38.0785 28.3399 37.9666 28.3074 37.8527L28.2439 38.039C28.2246 38.0956 28.2025 38.1475 28.1832 38.1899L27.5317 39.6381Z" fill="#8E8F99"/>
<path d="M32.6495 37.414C32.6825 37.4295 32.7109 37.4513 32.7323 37.4777L35.1476 40.1641C35.1476 40.1216 35.1476 40.0792 35.1476 40.0391C35.1476 39.999 35.1476 39.9589 35.1476 39.9212V37.3975H35.6417V40.9613H35.3657C35.3265 40.9623 35.2876 40.955 35.2525 40.9401C35.2184 40.9231 35.1884 40.9006 35.1642 40.874L32.7517 38.19C32.7543 38.2309 32.7543 38.2718 32.7517 38.3126C32.7517 38.3527 32.7517 38.3881 32.7517 38.4211V40.9613H32.2576V37.3975H32.5502C32.5843 37.3967 32.6182 37.4024 32.6495 37.414V37.414Z" fill="#8E8F99"/>
<path d="M39.7104 39.5438V40.9589H39.1583V39.5438L37.6318 37.3975H38.1259C38.1685 37.3954 38.2106 37.4062 38.2446 37.4282C38.2747 37.4511 38.2999 37.4782 38.3192 37.5084L39.2743 38.8928C39.3129 38.9518 39.346 39.006 39.3736 39.0579C39.4012 39.1098 39.4233 39.1593 39.4426 39.2089L39.5144 39.0556C39.5412 38.9995 39.5726 38.9451 39.6083 38.8928L40.5495 37.4989C40.5693 37.4711 40.5935 37.4457 40.6213 37.4235C40.6541 37.399 40.6966 37.3864 40.74 37.3881H41.2396L39.7104 39.5438Z" fill="#8E8F99"/>
<path d="M17.2632 31.417C17.5033 31.4429 17.7462 31.4642 17.9919 31.483C21.7165 30.0595 24.8673 27.7295 27.0506 24.7844C29.2338 21.8393 30.3527 18.4097 30.2672 14.9243L26.1626 11.4172C26.9972 15.1281 26.6068 18.9642 25.0351 22.4963C23.4634 26.0284 20.7724 29.1171 17.2632 31.417V31.417Z" fill="#8E8F99"/>
<path d="M15.7975 31.2539L15.9079 31.2728C19.6578 28.9811 22.5168 25.7809 24.1151 22.0861C25.7135 18.3912 25.9776 14.3717 24.8735 10.5472L19.0271 5.55212C21.3918 9.65797 22.3436 14.253 21.7719 18.8029C21.2002 23.3528 19.1284 27.6705 15.7975 31.2539V31.2539Z" fill="#8E8F99"/>
<path d="M35.6251 19.0424C34.6318 22.872 32.2195 26.3258 28.7463 28.8911C27.7319 29.6444 26.6378 30.3155 25.478 30.8957C28.3062 30.1855 30.9057 28.9298 33.0761 27.2255C35.2465 25.5213 36.9298 23.4139 37.9962 21.0659L35.6251 19.0424Z" fill="#8E8F99"/>
<path d="M34.6948 18.4784L31.3189 15.594C31.2544 18.8825 30.1602 22.0963 28.15 24.9012C26.1399 27.7062 23.2871 30 19.8883 31.5442H19.9049C20.6623 31.5439 21.419 31.5053 22.1711 31.4286C25.3475 30.3209 28.1535 28.5586 30.3388 26.2989C32.524 24.0392 34.0206 21.3525 34.6948 18.4784V18.4784Z" fill="#8E8F99"/>
<path d="M16.2861 3.4457L12.2587 0C8.65843 1.18869 5.56201 3.27837 3.37474 5.99553C1.18746 8.7127 0.0112346 11.9308 0 15.2285H0C0.0134937 18.8725 1.44899 22.4085 4.0793 25.2769C6.7096 28.1454 10.3845 30.1824 14.5222 31.0656C18.216 27.2205 20.3786 22.4693 20.6958 17.5023C21.013 12.5353 19.4683 7.6113 16.2861 3.4457V3.4457Z" fill="#8E8F99"/>
<path d="M44 17.9478C43.9854 13.6245 41.9689 9.48176 38.3908 6.42469C34.8127 3.36761 29.964 1.64466 24.9039 1.63221V1.63221C22.5657 1.63014 20.2473 1.99879 18.0665 2.71945L42.7247 23.7873C43.569 21.925 44.0015 19.9449 44 17.9478V17.9478Z" fill="#8E8F99"/>
</svg>

<svg xmlns="http://www.w3.org/2000/svg" width="44" height="41" fill="none"><path fill="#8E8F99" d="M6.81 40.223c.016 0 .032.004.046.01a.123.123 0 0 1 .04.023l.22.208a1.82 1.82 0 0 1-.62.394c-.28.1-.58.148-.881.141a2.38 2.38 0 0 1-.829-.132 1.82 1.82 0 0 1-.623-.372 1.666 1.666 0 0 1-.403-.576 1.89 1.89 0 0 1-.141-.738 1.765 1.765 0 0 1 .152-.741c.096-.214.242-.41.428-.575a2.01 2.01 0 0 1 .662-.376 2.64 2.64 0 0 1 .853-.132c.27-.005.54.036.792.12.219.082.42.194.594.333l-.185.222a.179.179 0 0 1-.047.04.128.128 0 0 1-.075.017.183.183 0 0 1-.08-.024l-.1-.059-.137-.075a1.599 1.599 0 0 0-.436-.133 1.97 1.97 0 0 0-.329-.023 1.813 1.813 0 0 0-.613.099 1.41 1.41 0 0 0-.48.278c-.138.129-.244.28-.312.444a1.47 1.47 0 0 0-.113.585 1.5 1.5 0 0 0 .113.594 1.263 1.263 0 0 0 .765.715c.18.064.373.096.568.094.113.002.226-.005.337-.019a1.347 1.347 0 0 0 .729-.304.174.174 0 0 1 .105-.038ZM13.186 39.18c.004.25-.047.5-.149.734a1.59 1.59 0 0 1-.416.57c-.184.162-.406.29-.652.373a2.732 2.732 0 0 1-1.678 0 1.943 1.943 0 0 1-.65-.375 1.67 1.67 0 0 1-.419-.575 1.884 1.884 0 0 1 0-1.47c.094-.214.237-.41.42-.578.185-.157.406-.28.649-.36.54-.18 1.138-.18 1.678 0 .245.085.467.212.651.375a1.689 1.689 0 0 1 .566 1.306Zm-.58 0c.005-.2-.03-.4-.104-.59a1.213 1.213 0 0 0-.762-.719 1.971 1.971 0 0 0-1.22 0 1.314 1.314 0 0 0-.467.279 1.184 1.184 0 0 0-.298.44c-.14.385-.14.796 0 1.18.062.163.164.313.298.441.13.12.29.215.467.276.393.126.826.126 1.22 0 .177-.061.337-.156.466-.276.133-.128.233-.279.296-.441.074-.19.11-.39.104-.59ZM17.537 39.799l.057.132c.022-.047.042-.09.064-.132.021-.045.045-.088.072-.13l1.41-2.19c.028-.039.053-.062.08-.07a.388.388 0 0 1 .116-.011h.417v3.563h-.494v-2.73a.929.929 0 0 1 0-.123l-1.419 2.221a.203.203 0 0 1-.083.081.252.252 0 0 1-.121.03h-.08a.25.25 0 0 1-.122-.03.2.2 0 0 1-.082-.08l-1.46-2.236V40.954h-.478v-3.556h.417a.389.389 0 0 1 .116.012.155.155 0 0 1 .077.068l1.44 2.193c.029.04.053.084.073.128ZM22.845 39.622v1.334h-.552v-3.558h1.23c.233-.004.465.022.688.078.179.043.344.118.486.221a.92.92 0 0 1 .276.35c.065.145.097.299.094.455a.99.99 0 0 1-.4.811 1.42 1.42 0 0 1-.49.236c-.214.058-.439.086-.664.082l-.668-.01Zm0-.382h.668c.145.001.29-.017.427-.055a.94.94 0 0 0 .31-.153.673.673 0 0 0 .254-.535.592.592 0 0 0-.056-.29.687.687 0 0 0-.193-.243 1.202 1.202 0 0 0-.742-.191h-.668v1.467ZM30.265 40.961h-.437a.21.21 0 0 1-.121-.033.224.224 0 0 1-.072-.082l-.375-.861h-1.886l-.389.86a.196.196 0 0 1-.069.08.21.21 0 0 1-.124.036h-.436l1.656-3.563h.574l1.679 3.563Zm-2.733-1.323h1.557l-.657-1.45a2.332 2.332 0 0 1-.125-.335l-.063.186c-.02.057-.041.108-.06.15l-.652 1.45ZM32.65 37.414a.234.234 0 0 1 .082.064l2.416 2.686v-2.766h.494v3.563h-.276a.273.273 0 0 1-.114-.02.3.3 0 0 1-.088-.067l-2.412-2.684a.964.964 0 0 1 0 .123v2.648h-.494v-3.563h.292c.034-.001.068.004.1.016ZM39.71 39.544v1.415h-.552v-1.415l-1.526-2.146h.494a.201.201 0 0 1 .119.03c.03.023.055.05.074.08l.955 1.385a1.394 1.394 0 0 1 .168.316l.072-.153c.027-.056.059-.11.094-.163l.942-1.394a.376.376 0 0 1 .071-.076.187.187 0 0 1 .119-.035h.5l-1.53 2.156ZM17.263 31.417c.24.026.483.047.729.066 3.724-1.424 6.875-3.753 9.059-6.699 2.183-2.945 3.302-6.374 3.216-9.86l-4.104-3.507c.834 3.711.444 7.547-1.128 11.08-1.572 3.531-4.263 6.62-7.772 8.92Z"/><path fill="#8E8F99" d="m15.797 31.254.11.019c3.75-2.292 6.61-5.492 8.208-9.187 1.599-3.695 1.863-7.714.759-11.539l-5.847-4.995c2.365 4.106 3.317 8.701 2.745 13.25-.572 4.55-2.644 8.869-5.974 12.452ZM35.625 19.042c-.993 3.83-3.406 7.284-6.879 9.85a21.958 21.958 0 0 1-3.268 2.004c2.828-.71 5.428-1.966 7.598-3.67 2.17-1.705 3.854-3.812 4.92-6.16l-2.37-2.024Z"/><path fill="#8E8F99" d="m34.695 18.478-3.376-2.884c-.065 3.289-1.159 6.502-3.169 9.307-2.01 2.805-4.863 5.099-8.262 6.643h.017c.757 0 1.514-.039 2.266-.115 3.177-1.108 5.983-2.87 8.168-5.13 2.185-2.26 3.682-4.947 4.356-7.82ZM16.286 3.446 12.26 0c-3.6 1.189-6.697 3.278-8.884 5.996C1.187 8.713.01 11.93 0 15.229c.013 3.643 1.449 7.18 4.08 10.048 2.63 2.868 6.304 4.905 10.442 5.789 3.694-3.845 5.857-8.597 6.174-13.564.317-4.967-1.228-9.89-4.41-14.056ZM44 17.948c-.015-4.324-2.031-8.466-5.61-11.523-3.577-3.057-8.426-4.78-13.486-4.793a21.773 21.773 0 0 0-6.837 1.087l24.658 21.068A14.086 14.086 0 0 0 44 17.947Z"/></svg>
